public/assets/images/logo-rd-station-default.svg

<svg width="416" height="96" viewBox="0 0 416 96" fill="none" xmlns="http://www.w3.org/2000/svg">
<path d="M135.837 16.0564H150.139C156.47 16.0564 161.049 20.4604 161.049 25.2451C161.049 28.0724 159.58 30.0841 158.166 31.3347C157.375 32.0958 156.414 32.6939 155.34 33.1289L160.993 42.3176H153.757L148.782 34.4338H142.621V42.3176H135.837V16.0564ZM149.913 28.3442C152.626 28.3442 153.983 27.0393 153.983 25.2995C153.983 23.5596 152.626 22.2547 149.913 22.2547H142.621V28.3986H149.913V28.3442Z" fill="black"/>
<path d="M165.572 16.0564H186.884V22.2003H172.355V25.8975H184.17V32.0415H172.355V36.228H186.884V42.372H165.572V16.0564Z" fill="black"/>
<path d="M197.059 34.2164C197.285 34.8145 197.624 35.4125 198.133 35.9019C198.981 36.7174 200.507 37.533 203.164 37.533C207.008 37.533 208.365 36.2281 208.365 34.9232C208.365 33.4552 206.387 32.8027 203.843 32.2046L199.659 31.226C195.25 30.3017 190.897 28.2356 190.897 23.2878C190.954 19.3731 195.194 15.1865 202.995 15.1865C208.309 15.1865 211.361 17.2526 213.114 19.2643C214.131 20.4605 214.81 21.7654 215.262 23.2878H208.196C208.026 22.8528 207.687 22.4722 207.291 22.0916C206.556 21.4392 205.312 20.8411 202.995 20.8411C199.377 20.8411 198.246 21.9285 198.246 23.0159C198.246 25.1364 202.599 25.7345 207.008 26.6588C211.305 27.6919 215.714 29.7036 215.714 34.6513C215.714 39.0554 211.418 43.1876 203.221 43.1876C197.172 43.1876 193.837 40.9584 192.028 38.7292C190.954 37.4243 190.219 35.9019 189.823 34.2164H197.059Z" fill="black"/>
<path d="M220.01 16.0564H226.794V31.1715C226.794 34.6513 229.281 37.098 232.899 37.098C236.517 37.098 239.004 34.7057 239.004 31.1715V16.0564H245.788V31.1715C245.788 38.3485 240.813 43.1875 232.842 43.1875C224.928 43.1875 219.897 38.3485 219.897 31.1715V16.0564H220.01Z" fill="black"/>
<path d="M251.498 16.0564H258.281V36.1737H272.357V42.3176H251.498V16.0564Z" fill="black"/>
<path d="M269.644 16.0564H295.026V22.2003H285.755V42.3176H278.971V22.2003H269.7V16.0564H269.644Z" fill="black"/>
<path d="M301.866 16.0564H315.264L323.178 42.3176H316.394L314.811 37.0436H302.318L300.735 42.3176H293.952L301.866 16.0564ZM313.002 30.9541L310.515 22.2003H306.671L304.127 30.9541H313.002Z" fill="black"/>
<path d="M326.343 16.0564H337.48C346.92 16.0564 352.912 21.8741 352.912 29.2142C352.912 36.6086 346.92 42.372 337.536 42.372H326.343V16.0564ZM337.706 36.228C342.737 36.228 345.62 33.4007 345.62 29.2142C345.62 25.0276 342.737 22.2003 337.706 22.2003H333.183V36.228H337.706Z" fill="black"/>
<path d="M371.737 15.1865C380.782 15.1865 387.396 21.5479 387.396 29.2142C387.396 36.8806 380.839 43.242 371.737 43.242C362.693 43.242 356.079 36.8806 356.079 29.2142C356.079 21.5479 362.636 15.1865 371.737 15.1865ZM371.737 37.098C376.486 37.098 380.104 33.6183 380.104 29.2142C380.104 24.8102 376.486 21.3304 371.737 21.3304C366.989 21.3304 363.371 24.8102 363.371 29.2142C363.371 33.5639 366.989 37.098 371.737 37.098Z" fill="black"/>
<path d="M397.345 34.2164C397.571 34.8145 397.911 35.4125 398.419 35.9019C399.267 36.7174 400.794 37.533 403.45 37.533C407.295 37.533 408.651 36.2281 408.651 34.9232C408.651 33.4552 406.673 32.8027 404.129 32.2046L399.946 31.226C395.536 30.3017 391.183 28.2356 391.183 23.2878C391.183 19.3731 395.423 15.1865 403.224 15.1865C408.538 15.1865 411.591 17.2526 413.343 19.2643C414.361 20.4605 415.039 21.7654 415.491 23.2878H408.482C408.312 22.8528 407.973 22.4722 407.577 22.0916C406.842 21.4392 405.599 20.8411 403.281 20.8411C399.663 20.8411 398.532 21.9285 398.532 23.0159C398.532 25.1364 402.885 25.7345 407.295 26.6588C411.591 27.6919 416 29.7036 416 34.6513C416 39.0554 411.704 43.1876 403.507 43.1876C397.458 43.1876 394.123 40.9584 392.314 38.7292C391.24 37.4243 390.505 35.9019 390.109 34.2164H397.345Z" fill="black"/>
<path d="M135.837 54.1704H146.973C156.414 54.1704 162.406 59.9881 162.406 67.3282C162.406 74.7226 156.414 80.486 147.03 80.486H135.837V54.1704ZM147.199 74.2877C152.231 74.2877 155.114 71.4604 155.114 67.2738C155.114 63.0873 152.231 60.26 147.199 60.26H142.677V74.2877H147.199Z" fill="black"/>
<path d="M166.929 54.1704H173.712V80.4316H166.929V54.1704Z" fill="black"/>
<path d="M193.837 53.3005C199.886 53.3005 203.617 55.8016 205.821 58.2483C207.065 59.7163 208.026 61.2931 208.704 63.1417H201.695C201.299 62.4349 200.734 61.8368 200.055 61.2931C198.812 60.3688 196.946 59.3901 193.95 59.3901C189.201 59.3901 185.583 62.8698 185.583 67.2739C185.583 71.6779 189.201 75.1577 193.95 75.1577C196.89 75.1577 198.812 74.0703 200.055 72.9828C200.734 72.3304 201.299 71.6236 201.695 70.808H197.851V65.969H212.379V70.808H208.761C208.139 72.7654 207.178 74.5052 205.878 76.082C203.673 78.7462 199.886 81.356 193.893 81.356C184.905 81.356 178.348 74.9946 178.348 67.3283C178.235 59.6076 184.849 53.3005 193.837 53.3005Z" fill="black"/>
<path d="M215.431 54.1704H222.215V80.4316H215.431V54.1704Z" fill="black"/>
<path d="M225.664 54.1704H251.046V60.3143H241.775V80.4316H234.991V60.3143H225.72V54.1704H225.664Z" fill="black"/>
<path d="M257.885 54.1704H271.283L279.197 80.4316H272.414L270.831 75.1576H258.338L256.755 80.4316H249.971L257.885 54.1704ZM268.965 69.0681L266.478 60.3143H262.634L260.147 69.0681H268.965Z" fill="black"/>
<path d="M282.363 54.1704H289.146V80.4316H282.363V54.1704Z" fill="black"/>
<path d="M300.509 72.3304C300.735 72.9285 301.075 73.5265 301.583 74.0159C302.431 74.8315 303.958 75.647 306.615 75.647C310.459 75.647 311.815 74.3421 311.815 73.0372C311.815 71.5692 309.837 70.9167 307.293 70.3187L303.11 69.34C298.7 68.4157 294.348 66.3496 294.348 61.4018C294.348 57.4871 298.587 53.3005 306.388 53.3005C311.702 53.3005 314.755 55.3666 316.507 57.3784C317.525 58.5745 318.203 59.8794 318.655 61.4018H311.646C311.476 60.9668 311.137 60.5863 310.741 60.2057C310.006 59.5532 308.763 58.9551 306.445 58.9551C302.827 58.9551 301.696 60.0425 301.696 61.13C301.696 63.2504 306.049 63.8485 310.459 64.7728C314.755 65.8059 319.164 67.8176 319.164 72.7654C319.164 77.1694 314.868 81.3016 306.671 81.3016C300.622 81.3016 297.287 79.0724 295.478 76.8432C294.404 75.5383 293.669 74.0159 293.273 72.3304H300.509Z" fill="black"/>
<g clip-path="url(#clip0_5_17762)">
<path d="M87.5644 36.0195L60.3623 77.9704L69.6077 95.9999L96.8099 54.049L87.5644 36.0195Z" fill="#806EFF"/>
<path d="M27.2021 0L0 41.9509L9.24543 59.9804L36.4475 18.0295L27.2021 0Z" fill="#806EFF"/>
<path d="M66.6492 36.0196L78.319 18.0295L70.8404 3.49591L69.0735 0L45.6928 36.0196L18.4907 77.9705L27.7362 96L54.9383 54.0491L51.8976 48.0786L45.6928 36.0196H66.6492Z" fill="#806EFF"/>
<path d="M117.725 54.049L108.48 36.0195H87.5646L96.81 54.049L69.6079 95.9999H90.5231L117.725 54.049Z" fill="black"/>
<path d="M57.3629 18.0295L48.1175 0H27.2023L36.4477 18.0295L9.24561 59.9804H30.1608L57.3629 18.0295Z" fill="black"/>
<path d="M75.8948 54.0491L99.2343 18.0295L89.9889 0H69.0737L78.3191 18.0295L66.6493 36.0196H45.693L54.9384 54.0491L27.7363 96H48.6926L72.0322 59.9804L75.8948 54.0491Z" fill="black"/>
</g>
<defs>
<clipPath id="clip0_5_17762">
<rect width="117.725" height="96" fill="white"/>
</clipPath>
</defs>
</svg>

<svg xmlns="http://www.w3.org/2000/svg" fill="none" viewBox="0 0 416 96"><path fill="#000" d="M135.837 16.056h14.302c6.331 0 10.91 4.404 10.91 9.19 0 2.826-1.469 4.838-2.883 6.089-.791.76-1.752 1.359-2.826 1.794l5.653 9.189h-7.236l-4.975-7.884h-6.161v7.884h-6.784V16.056Zm14.076 12.288c2.713 0 4.07-1.305 4.07-3.045s-1.357-3.044-4.07-3.044h-7.292v6.144h7.292v-.055ZM165.572 16.056h21.312V22.2h-14.529v3.698h11.815v6.143h-11.815v4.187h14.529v6.144h-21.312V16.056ZM197.059 34.216c.226.599.565 1.197 1.074 1.686.848.815 2.374 1.631 5.031 1.631 3.844 0 5.201-1.305 5.201-2.61 0-1.468-1.978-2.12-4.522-2.718l-4.184-.979c-4.409-.924-8.762-2.99-8.762-7.938.057-3.915 4.297-8.101 12.098-8.101 5.314 0 8.366 2.066 10.119 4.077 1.017 1.197 1.696 2.501 2.148 4.024h-7.066c-.17-.435-.509-.816-.905-1.196-.735-.653-1.979-1.25-4.296-1.25-3.618 0-4.749 1.087-4.749 2.174 0 2.12 4.353 2.719 8.762 3.643 4.297 1.033 8.706 3.045 8.706 7.992 0 4.404-4.296 8.537-12.493 8.537-6.049 0-9.384-2.23-11.193-4.459-1.074-1.305-1.809-2.827-2.205-4.513h7.236ZM220.01 16.056h6.784v15.116c0 3.48 2.487 5.926 6.105 5.926 3.618 0 6.105-2.392 6.105-5.926V16.056h6.784v15.116c0 7.177-4.975 12.015-12.946 12.015-7.914 0-12.945-4.838-12.945-12.015V16.056h.113ZM251.498 16.056h6.783v20.118h14.076v6.144h-20.859V16.056ZM269.644 16.056h25.382V22.2h-9.271v20.118h-6.784V22.2H269.7v-6.144h-.056ZM301.866 16.056h13.398l7.914 26.262h-6.784l-1.583-5.274h-12.493l-1.583 5.274h-6.783l7.914-26.262Zm11.136 14.898-2.487-8.754h-3.844l-2.544 8.754h8.875ZM326.343 16.056h11.137c9.44 0 15.432 5.818 15.432 13.158 0 7.395-5.992 13.158-15.376 13.158h-11.193V16.056Zm11.363 20.172c5.031 0 7.914-2.827 7.914-7.014 0-4.186-2.883-7.014-7.914-7.014h-4.523v14.028h4.523ZM371.737 15.187c9.045 0 15.659 6.36 15.659 14.027 0 7.667-6.557 14.028-15.659 14.028-9.044 0-15.658-6.361-15.658-14.028 0-7.666 6.557-14.027 15.658-14.027Zm0 21.911c4.749 0 8.367-3.48 8.367-7.884s-3.618-7.884-8.367-7.884c-4.748 0-8.366 3.48-8.366 7.884 0 4.35 3.618 7.884 8.366 7.884ZM397.345 34.216c.226.599.566 1.197 1.074 1.686.848.815 2.375 1.631 5.031 1.631 3.845 0 5.201-1.305 5.201-2.61 0-1.468-1.978-2.12-4.522-2.718l-4.183-.979c-4.41-.924-8.763-2.99-8.763-7.938 0-3.915 4.24-8.101 12.041-8.101 5.314 0 8.367 2.066 10.119 4.077 1.018 1.197 1.696 2.501 2.148 4.024h-7.009c-.17-.435-.509-.816-.905-1.196-.735-.653-1.978-1.25-4.296-1.25-3.618 0-4.749 1.087-4.749 2.174 0 2.12 4.353 2.719 8.763 3.643 4.296 1.033 8.705 3.045 8.705 7.992 0 4.404-4.296 8.537-12.493 8.537-6.049 0-9.384-2.23-11.193-4.459-1.074-1.305-1.809-2.827-2.205-4.513h7.236ZM135.837 54.17h11.136c9.441 0 15.433 5.818 15.433 13.158 0 7.395-5.992 13.158-15.376 13.158h-11.193V54.17Zm11.362 20.118c5.032 0 7.915-2.828 7.915-7.014 0-4.187-2.883-7.014-7.915-7.014h-4.522v14.028h4.522ZM166.929 54.17h6.783v26.262h-6.783V54.17ZM193.837 53.3c6.049 0 9.78 2.502 11.984 4.948 1.244 1.468 2.205 3.045 2.883 4.894h-7.009c-.396-.707-.961-1.305-1.64-1.849-1.243-.924-3.109-1.903-6.105-1.903-4.749 0-8.367 3.48-8.367 7.884s3.618 7.884 8.367 7.884c2.94 0 4.862-1.088 6.105-2.175.679-.653 1.244-1.36 1.64-2.175h-3.844v-4.839h14.528v4.839h-3.618a15.635 15.635 0 0 1-2.883 5.274c-2.205 2.664-5.992 5.274-11.985 5.274-8.988 0-15.545-6.361-15.545-14.028-.113-7.72 6.501-14.028 15.489-14.028ZM215.431 54.17h6.784v26.262h-6.784V54.17ZM225.664 54.17h25.382v6.144h-9.271v20.118h-6.784V60.314h-9.271V54.17h-.056ZM257.885 54.17h13.398l7.914 26.262h-6.783l-1.583-5.274h-12.493l-1.583 5.274h-6.784l7.914-26.262Zm11.08 14.898-2.487-8.754h-3.844l-2.487 8.754h8.818ZM282.363 54.17h6.783v26.262h-6.783V54.17ZM300.509 72.33c.226.599.566 1.197 1.074 1.686.848.816 2.375 1.631 5.032 1.631 3.844 0 5.2-1.305 5.2-2.61 0-1.468-1.978-2.12-4.522-2.718l-4.183-.979c-4.41-.924-8.762-2.99-8.762-7.938 0-3.915 4.239-8.102 12.04-8.102 5.314 0 8.367 2.067 10.119 4.078 1.018 1.197 1.696 2.501 2.148 4.024h-7.009c-.17-.435-.509-.816-.905-1.196-.735-.653-1.978-1.25-4.296-1.25-3.618 0-4.749 1.086-4.749 2.174 0 2.12 4.353 2.718 8.763 3.643 4.296 1.033 8.705 3.045 8.705 7.992 0 4.404-4.296 8.537-12.493 8.537-6.049 0-9.384-2.23-11.193-4.459-1.074-1.305-1.809-2.827-2.205-4.513h7.236Z"/><g clip-path="url(#a)"><path fill="#806EFF" d="M87.564 36.02 60.362 77.97 69.608 96 96.81 54.049l-9.246-18.03ZM27.202 0 0 41.95l9.245 18.03 27.203-41.95L27.201 0ZM66.65 36.02l11.669-17.99L70.84 3.495 69.073 0l-23.38 36.02L18.49 77.97 27.736 96l27.202-41.95-3.04-5.971-6.205-12.06h20.956Z"/><path fill="#000" d="m117.725 54.049-9.245-18.03H87.565l9.245 18.03-27.202 41.95h20.915l27.202-41.95ZM57.363 18.03 48.118 0H27.201l9.246 18.03L9.246 59.98H30.16l27.202-41.95Z"/><path fill="#000" d="m75.895 54.05 23.34-36.02L89.988 0H69.074l9.245 18.03-11.67 17.99H45.693l9.245 18.03L27.736 96h20.957l23.34-36.02 3.862-5.93Z"/></g><defs><clipPath id="a"><path fill="#fff" d="M0 0h117.725v96H0z"/></clipPath></defs></svg>
